X: 190
T: Polska efter Hjort Anders Olsson
S: efter Hjort Anders Olsson
N: känd bland annat genom [[!Hulling]]
R: Polska
O: Bingsjö, Dalarna
Z: Håkan Lidén, 2007-09-21
M: 3/4
L: 1/8
K: A
Ac/B/ AE CA | cB/c/ dB GE | ef/e/ de/d/ Bg/b/ | g/e/g/b/ ae/d/ c/B/A/G/ |
Ac/B/ AE CA | cB/c/ dB GE | ef/e/ de/d/ Bg/b/ | g/e/g/b/ a4 :|
|: ae/a/ c'a ec | d>e f/a/f/d/ cc | d>e f/a/f/d/ cc | B/G/B/G/ AA/B/ cA |
ae/a/ c'a ec | d>e f/a/f/d/ cc | d>e f/a/f/d/ cc | B/G/B/G/ A4 :|

